X: 14917
T: Gathering, The
R: jig
M: 6/8
K: Edorian
B|:"Em"EBe gf/g/f|edB ABc|"Em/D"dEE cEE|"Em/C#"BEA GAB|"Em"EBe gf/g/f|
edB def|1 "Em/D"aBa gfe|"Em/C"f/g/fd e2z:|2 "Em/D"aBb agf|"Em"g/a/gf e2z||

